!!!OTL: 1327. Marschlied der Grenadiere.
!!!ARE: Europa, Mitteleuropa, Deutschland, Berlin
!!!SCT: E1327A
!!!TXL: @@NDS
!!!YEM: Copyright 1995, estate of Helmut Schaffrath.
**kern	**text
*ICvox	*
*M2/4	*
*k[f#]	*
*G:	*
=1	=1
!LO:TX:a:t=Munter.	!
!LO:TX:a:t=Variante (in Berlin).	!
{8b/	Bin
8g	ein
8g	luſt-
8e	-ger
=2	=2
8e	Gre-
8d	-na-
4d}	-dier,
=3	=3
{8d	juch-
8cc	-hei-
4a	-di,
=4	=4
8d	juch-
8b/	-hei-
4g}	-da!
=5	=5
{8b/	nie-
8g	-mals
8g	ich
8e	den
=6	=6
8e	Muth
8d	ver-
4d}	-lier,
=7	=7
{8d	juch-
8cc	-hei-
8a	-di
8f#	hei-
=8	=8
4g	-da!
8r}	.
{8b	Jch
=9	=9
8.a	die-
16b/	-ne
8a/	mei-
8b	-nem
=10	=10
8a	Kö-
8b/	-nig
4a}	treu,
=11	=11
{8a	lieb'
8a	mein
8b	Mäd-
8cc#	-chen
=12	=12
8dd	auch
8d	da-
4d}	-bei.
=13	=13
{8g	Juch-
8g	-hei-
4b	-di
=14	=14
8b	juch-
8dd	hei-
4dd}	-da,
=15	=15
{8dd	juch-
8cc	-hei-
8cc	-da
8cc	la
=16	=16
8ee	la
8dd	la
4dd}	la.
=17	=17
{8g	Juch-
8g	-hei-
4b	-di
=18	=18
8b	juch-
8b	hei-
4dd}	-da!
=19	=19
{8dd	Juch
8cc	hei-
8a	-di
8f#	la
=20	=20
4g	la
4r}	.
==	==
!!!AGN: Staende -, Soldaten -, Kriegs - Lied
!!!ONB: ESAC (Essen Associative Code) Database: ERK3
!!!AMT: simple duple
!!!AIN: vox
!!!EED: Helmut Schaffrath
!!!EEV: 1.0
!!!GTL: Staendelieder (Berufslieder). 1. Soldaten- und Kriegslieder. Soldatenlieder seit dem 30jaehr. Kriege.
!!!URL-scan: https://rosdok.uni-rostock.de/mcrviewer/recordIdentifier/rosdok_ppn745177999/iview2/phys_0214.iview2?x=-128.77276441889308&y=677.4783461811021&scale=0.5870222003877485&rotation=0&layout=singlePageLayout
!!!ENC: Anna Maria Matuszewska
!!!EEV: 2024/12/27
*-	*-
